X:1
T:Notre bon pere tout puissant
T:La Benedicte
T:Jean Crispel, 1549-1564
T:Quatriesme livre des chansons a quatre parties...Leuven 1552
%%score [ 1 2 3 4 ]
L:1/8
Q:1/4=160
M:none
K:F
V:1 treble nm="superius"
V:2 treble nm="contratenor"
V:3 treble-8 nm="tenor"
V:4 bass nm="bassus"
V:1
 z16 | F8 F4 F4 | A4 A4 B4 B4 | A16 | z4 A4 A4 A4 | B2 A2 B2 c2 d2 B2 d8 | c6 BA B4 c16 | %7
w: |Nos- tre bon|pe- re tout puis-|sant|qui gou- ver-|nes * * * ta * cre-|* * * a- ture,|
w: |||||||
 z8 c4 c2 B2 x8 | A16 | A4 A2 A2 B4 G4 | G4 G4 A8 | z4 F4 G12 | G4 B4 B4 A6 x2 | GF A4 G8 F8 x2 | %14
w: ou- vre ta|main|* * * * nous|be- nis- sant|pour so-|bre- ment pren- dre|* * pas- tu- *|
w: ||ou- vre ta main *|||||
 E4 x16 | F8 z4 A6 | A2 A4 G4 G4 F4 | B6 A2 A8 x4 | G4 A24 | z4 F4 G4 A4 | B8 A8 | z4 G4 A4 c4 x4 | %22
w: |re don-|ne nous par ton e-|scrip- * tu-|* re,|que nous e-|spritz *||
w: |||||||que nous e-|
 c2 B2 A4 G6 A2 x4 | B4 A8 G8 | F4 G8 z4 | G4 G4 G4 c8 | A8 A12 | F4 G4 A4 B8 | A16 x4 | %29
w: |* soi- ent|nour- ris|Et tes biens don-|ne par|ta cu- * *|re,|
w: sprits * * * *|||||||
 z4 c4 c4 c4 x4 | A4 A4 B2 c2 d2 c2 x8 | B2 A2 G2 F2 E4 F8 | E4 F8- x4 | F8 z4 c4 x2 | %34
w: aus- sy de|toy soyent * * * *||be- nis||
w: ||||* aus-|
 c4 c4 A4 A4 x6 | B2 c2 d2 c2 B2 A2 G2 F2 | E4 F8 E4 | F16 |] x16 | x16 | x16 |] %41
w: |||||||
w: si de toy soyent||* * be-|nis.||||
V:2
 C8 A,4 F,4 | C4 C4 D4 D4 | C4 F6 ED E4 | F4 C4 C4 C4 | F8 z4 F4 | F4 F4 B4 A4 x4 | G4 F4 G8 x12 | %7
w: Nos- tre bon|pe- re tout puis-|sant, * * * *|* qui gou- ver-|nez, *|* * * ta|cre- a- tu-|
w: ||* pui * * *|sant, * * *|* qui|gou- ver- nes *||
 E8 G4 G2 F2 x8 | E4 E4 E4 E4 | F4 C4 C2 B,2 A,4 | C4 F8 E4 | D6 E2 F8 x4 | z4 D4 E12 | E4 F12 x8 | %14
w: re, ou- vre ta|main, nous be- nis-|sant, * * * *|||pour so-|bre- ment|
w: ||* ou- vre ta main|nous be- nis-|sant * *|||
 C4 F4 E4 D8 | C8 x10 | z4 C6 C2 C4 x2 | F6 F2 E4 E4 x4 | D4 F8 F4 x12 | D6 E2 F4 C4 | %20
w: pren- dre pas- tu-|re|don- ne nous,|* * * par|ton e- scrip-|tu- * re, que|
w: |||don- ne nous *|||
 D4 F4 F2 E2 D2 C2 | B,4 F2 E2 D2 C2 C8 | B,4 C8 C8 | E4 F8 F4 x4 | E4 C4 x8 | B,4 C8 B,4 x4 | %26
w: nous e- spritz * * *|* soy * * * ent|nour- ris *||soy *|* * ent|
w: ||* * que|nous e- spritz|||
 C8 D8 x4 | E16 x4 | z4 C4 C4 C4 x4 | F4 F4 F6 E2 x4 | D4 C8 B,4 x8 | C4 C4 C4 C4 x4 | %32
w: nour- *|ris|Et tes biens|don- nes par *|* ta cu-|re, aus- sy de|
w: ||||||
 F,2 G,2 A,2 B,2 C8 | z4 F4 F4 F6 | E2 D4 C4 B,4 C8 | A,4 C4 x8 | C4 C4 F,2 G,2 A,2 B,2 | %37
w: toy * * * *|aus- sy de|* toy soy- ent be-|nis, *||
w: |||* aus-|\-si de toy * * *|
 C8 z4 F4 |] F4 F6 E2 D4 | C4 B,4 C8 | C16 |] %41
w: ||||
w: * aus-|si de * toy|soient * be-|nis.|
V:3
 z8 c8 | A4 F4 B4 B4 | A4 d8 c2 B2 | c8 z4 c4 | c4 c4 f4 c4 | d8 f8 x4 | e4 d2 c2 d8 x12 | c24 | %8
w: Nos-|tre bon pe- re|tout puis- * *|sant qui|gou- ver- nes ta|cre- a-|tu * * *|re,|
w: ||||||||
 z4 c4 x8 | c2 B2 A2 G2 F8 | f4 f2 e2 d4 c4 | c4 B4 c8 x4 | z4 A4 c12 | c4 d4 d4 c4 x8 | %14
w: ou-|vrez * ta * main|||pour so-|bre- ment pren- dre|
w: ||ou- vre ta main nous|be- nis- sant|||
 A4 c6 B2 A4 x4 | B4 G8 x6 | F16 x2 | z4 c6 c2 c4 x4 | A4 d4 d4 c4 x12 | B8 A8 | z4 c4 d4 f4 | %21
w: pas- tu * *||re,|don- nes nous|par ton e- scrip-|tu- re,|que nous e-|
w: |||||||
 d6 c2 d2 e2 f8 | e4 f8 z8 | z4 F4 A4 c6 x2 | d2 e4 x10 | d4 f4 e4 d8 | c8 B4 c8 | z4 e4 e4 e4 x4 | %28
w: spritz * soy * ent|nour- ris|||||Et tes biens|
w: ||que nous e|* sprits|soient * * *|* nour- ris||
 f8 c8 x4 | c4 d2 c2 d2 e2 f8 | e4 x20 | f8 z4 c4 x4 | c4 c4 F2 G2 A2 B2 | c4 c4 d4 B2 c2 x2 | %34
w: don- nez|par ta * * * *|cu-|re, aus-|sy de toy * * *|* soyent * * *|
w: ||||||
 d2 c2 B2 A2 G4 F4 x6 | G8 F8 | z4 c4 c4 c4 | F2 G2 A2 B2 c4 c4 |] d4 B2 c2 d2 c2 B2 A2 | %39
w: |be- nis,|Aus- si de|toy * * * * be-|nis. * * * * * *|
w: |||||
 G4 F4 G8 | F16 |] %41
w: ||
w: ||
V:4
 z16 | F,8 D,4 B,,4 | F,4 F,4 G,4 G,4 | F,16 | z4 F,4 F,4 F,4 | B,12 F,4 x4 | G,4 A,4 G,8 x12 | %7
w: |Nos- tre bon|pe- re tout puis-|sant|qui gou- ver-|nez ta|cre- a- tu-|
w: |||||||
 C,16 x8 | z4 C4 C2 B,2 A,2 G,2 | F,8 z4 F,4 | F,2 E,2 D,2 C,2 B,,4 C,4 | G,4 G,4 F,8 x4 | %12
w: re,|ou- vrez * ta *|main *|* * * * * nous|be- nis- sant,|
w: ||* ou-|vre * ta * main *||
 z4 D,4 C,12 | C,4 B,,4 B,,4 F,12 | C,4 D,4 B,,4 C,8 | F,8 z4 F,6 | F,2 F,4 C,4 C,4 D,4 | %17
w: pour so-|bre- ment pren- dre|pas- tu * *|re, don-|nez nous par ton e-|
w: |||||
 B,,4 F,8 G,8 | F,16 x12 | z4 F,4 x8 | G,4 B,8 A,4 | G,8 F,4 F,4 x4 | A,4 C6 B,2 A,2 G,2 x4 | %23
w: scrip- tu *|re,|que|nous e- *|spritz, * *||
w: ||||* * que|nous e * * *|
 F,6 E,2 C,4 C,4 x4 | G,4 F,4 G,8 | A,8 G,8 x4 | C,8 z4 C,4 x4 | C,4 C,4 F,8 x4 | F,6 G,2 A,4 B,8 | %29
w: * * * soyent|nour * *||ris Et|tes biens don-|nez * * par|
w: spritz * * *||||||
 A,4 G,8 x8 | F,24 | z4 F,4 F,4 F,4 x4 | B,,12 B,,4 | C,4 D,4 C,8 x2 | F,8- x14 | F,16 | %36
w: ta cu-|re|aus- sy de|toy soyent|* * be-|nis||
w: |||||||
 z4 F,4 F,4 F,4 | B,,12 B,,4 |] C,4 D,4 C,8 | F,16 | x16 |] %41
w: |||||
w: aus- si de|tou soient|* * be-|nis.||

